X:1
T: The Lassie wi' the Yellow Coatie
C:
R:Reel
Q: 232
K:G
M:4/4
L:1/8
|:A|G2 GB de gd|e2 fd ed ef|gG GB de gd|e1/2f1/2g dB AG EA|
G2 GB de gd|e2 fd ed ef|gG GB de gd|e1/2f1/2g dB AG Ea|
ga bg ae gd|Bd de =fg ed|ga bg ae gd|e1/2f1/2g dB AG Ea|
ga bg ae gd|Bd de =fg ec|ga bg ae gd|e1/2f1/2g dB G3:|
